images/about-us.svg

<svg width="81" height="80" viewBox="0 0 81 80" fill="none" xmlns="http://www.w3.org/2000/svg">
<path d="M67.0431 18.4592C69.4972 18.4592 71.494 16.4626 71.494 14.0085C71.494 11.5543 69.4972 9.55774 67.0431 9.55774C64.5898 9.55774 62.5939 11.5543 62.5939 14.0085C62.5939 16.4625 64.5898 18.4592 67.0431 18.4592ZM67.0431 11.6182C68.3612 11.6182 69.4335 12.6905 69.4335 14.0085C69.4335 15.3265 68.3612 16.3988 67.0431 16.3988C65.7259 16.3988 64.6543 15.3265 64.6543 14.0085C64.6543 12.6905 65.7259 11.6182 67.0431 11.6182Z" fill="#3A3BC5"/>
<path d="M73.8039 17.8412C74.4799 16.4838 74.9332 15.1733 74.9332 14.0947C74.9332 9.74489 71.3937 6.20607 67.043 6.20607C65.6969 6.20607 64.4288 6.5457 63.3191 7.14272C56.6029 2.46773 48.7289 0 40.5 0C29.8161 0 19.7712 4.16073 12.2159 11.7161C4.66073 19.2712 0.5 29.3159 0.5 40C0.5 50.6839 4.66073 60.7288 12.2159 68.2839C19.771 75.8393 29.8161 80 40.5 80C51.1841 80 61.2288 75.8393 68.7841 68.2839C76.3393 60.7288 80.5 50.6841 80.5 40C80.5 32.0621 78.1854 24.412 73.8039 17.8412ZM78.4241 38.9691H74.8362C74.8691 38.7883 74.8875 38.6063 74.8875 38.4232C74.8875 34.9205 69.0066 32.6863 65.9316 32.6863H57.725L51.0948 19.0128C54.2549 18.701 57.2954 18.2286 60.1682 17.6093C62.0006 21.4218 65.7257 25.696 66.2717 26.3128L67.0429 27.1842L67.8143 26.313C68.2537 25.8167 70.7493 22.9541 72.6631 19.8692C76.2651 25.6083 78.2428 32.1622 78.4241 38.9691ZM57.8134 41.2188C57.5979 40.7517 57.1266 40.45 56.6124 40.45H46.364C45.8563 40.45 45.3874 40.7462 45.1698 41.2042L44.7435 42.0996H28.7906C27.8849 42.0996 26.9316 41.9576 25.9714 41.6854L28.5096 38.7732C28.8748 38.3542 28.9606 37.7536 28.7281 37.2429C28.5025 36.7469 28.0309 36.4387 27.4975 36.4387H20.1543C19.7906 36.4387 19.4554 36.5867 19.2073 36.8358C18.8407 36.2229 18.5372 35.5228 18.3883 34.7467H65.9316C67.5726 34.7467 69.8118 35.511 71.2876 36.488H66.5736V38.5484H72.8176C72.7232 39.2581 71.8453 40.1221 70.4766 40.8377C69.0339 41.5926 67.2074 42.0999 65.9314 42.0999H57.891C57.9649 41.8106 57.9429 41.499 57.8134 41.2188ZM55.0126 42.5105L43.1317 56.4262H40.2036L46.8299 42.5105H55.0126ZM20.0057 45.3943H17.9494L20.6429 38.4991H26.0152L20.0057 45.3943ZM19.7403 24.5971H21.973L26.7165 32.6861H21.0513L19.7403 24.5971ZM46.8855 32.6861L44.0915 15.8382H47.2655L55.4348 32.6861H46.8855ZM67.043 8.26652C70.2577 8.26652 72.8727 10.8811 72.8727 14.0947C72.8727 16.5457 69.1778 21.4862 67.0418 24.048C64.5217 21.0356 61.2149 16.3315 61.2149 14.0947C61.2151 10.8811 63.8294 8.26652 67.043 8.26652ZM41.7773 2.44713C42.8051 3.97598 44.8288 7.17088 46.8955 11.4734L48.7526 10.5814C46.9998 6.93203 45.3007 4.08501 44.1017 2.22923C50.3591 2.81509 56.3145 4.92773 61.5564 8.43462C60.0767 9.86938 59.1544 11.8759 59.1544 14.0948C59.1544 14.5775 59.2472 15.1075 59.4075 15.6663C56.4784 16.283 53.3668 16.7398 50.1336 17.0308L48.9183 14.5243C48.6989 14.0708 48.2315 13.7779 47.7275 13.7779H43.2215C42.8319 13.7779 42.4641 13.9484 42.2122 14.2454C41.9603 14.5426 41.8527 14.9334 41.9166 15.3177L42.2627 17.4043C42.0812 17.4053 41.8996 17.4067 41.7191 17.4067C39.1717 17.4067 36.6619 17.3055 34.2197 17.1113C36.95 10.0289 40.2205 4.76067 41.7773 2.44713ZM39.5556 2.07247C37.7723 4.81836 34.6693 10.0773 32.0915 16.9159C25.2601 16.207 19.0573 14.7487 14.2095 12.6733C20.8225 6.30858 29.7314 2.31371 39.5556 2.07247ZM15.2952 68.3306C20.1448 66.4242 26.2151 65.0925 32.8224 64.4594C35.2874 70.6708 38.0561 75.4105 39.6645 77.9289C30.3253 77.7261 21.8081 74.1311 15.2952 68.3306ZM34.9682 64.2807C37.177 64.1222 39.4349 64.0399 41.7191 64.0399C44.0484 64.0399 46.3429 64.1234 48.5821 64.2848C46.0172 70.6002 43.1751 75.273 41.7776 77.4023C40.3455 75.2203 37.517 70.5583 34.9682 64.2807ZM43.987 77.778C45.584 75.2601 48.3005 70.5771 50.7277 64.4649C56.5191 65.0223 61.8756 66.1182 66.4079 67.689C60.4187 73.2962 52.6165 76.9876 43.987 77.778ZM68.0276 66.081C63.2923 64.3305 57.6306 63.1026 51.4887 62.4712C52.8388 58.7899 54.044 54.663 54.8359 50.2294L52.8076 49.8671C52.0011 54.3828 50.7538 58.571 49.3653 62.2776C46.875 62.0806 44.317 61.9797 41.7189 61.9797C39.1681 61.9797 36.6464 62.0806 34.1856 62.2748C32.494 57.7568 31.0146 52.5249 30.2845 46.8539L28.241 47.117C28.9646 52.7382 30.4031 57.9388 32.0625 62.4669C25.0763 63.1821 18.6793 64.6655 13.6479 66.7766C7.02595 60.1361 2.84342 51.0624 2.5747 41.0297H5.75844V38.9693H2.57487C2.83037 29.4421 6.61661 20.7812 12.668 14.2461C17.6871 16.5167 24.1909 18.1208 31.3719 18.9099C30.2888 22.0482 29.341 25.4745 28.6868 29.111L30.7148 29.4759C31.3815 25.7692 32.3621 22.2862 33.4797 19.1162C36.159 19.3471 38.9181 19.4671 41.7189 19.4671C42.0127 19.4671 42.3084 19.4657 42.6039 19.4632L44.7967 32.6864H29.105L23.5468 23.2084C23.3038 22.7941 22.8547 22.5368 22.3742 22.5368H18.9161C18.5167 22.5368 18.1395 22.7111 17.8807 23.0152C17.6222 23.3193 17.5104 23.7197 17.5742 24.1138L18.9637 32.6864H17.5581C17.196 32.6864 16.8455 32.8368 16.5962 33.0992C16.3495 33.3588 16.2185 33.7124 16.2367 34.0642C16.3179 35.7946 17.0016 37.49 18.2245 39.0261L15.6829 45.5326C15.51 45.9748 15.5658 46.4715 15.832 46.8613C16.0859 47.233 16.5014 47.4549 16.9439 47.4549H20.3354C20.7214 47.4549 21.0902 47.2856 21.3474 46.9906L24.4975 43.3762C25.9414 43.8903 27.4052 44.16 28.7901 44.16H43.7624L37.8413 56.5954L37.8412 56.5957C37.6449 57.008 37.6734 57.4846 37.9171 57.8706C38.1609 58.2566 38.579 58.4869 39.0355 58.4869H43.472C43.859 58.4869 44.2256 58.3182 44.478 58.0231L56.3134 44.1606H65.9318C67.5351 44.1606 69.6943 43.5728 71.432 42.6636C72.3708 42.1727 73.1296 41.6207 73.6961 41.0297H78.4253C78.1657 50.7166 74.2574 59.5092 68.0276 66.081ZM39.7021 57.4802C39.7019 57.4803 39.7019 57.4807 39.7017 57.481L39.7021 57.4802Z" fill="#3A3BC5"/>
<path d="M55.8157 36.488H53.7552V38.5485H55.8157V36.488Z" fill="#3A3BC5"/>
<path d="M47.2305 36.488H45.17V38.5485H47.2305V36.488Z" fill="#3A3BC5"/>
<path d="M34.3528 36.488H32.2924V38.5485H34.3528V36.488Z" fill="#3A3BC5"/>
<path d="M60.1084 36.488H58.048V38.5485H60.1084V36.488Z" fill="#3A3BC5"/>
<path d="M38.6453 36.488H36.5848V38.5485H38.6453V36.488Z" fill="#3A3BC5"/>
<path d="M42.938 36.488H40.8776V38.5485H42.938V36.488Z" fill="#3A3BC5"/>
<path d="M51.5232 36.488H49.4628V38.5485H51.5232V36.488Z" fill="#3A3BC5"/>
<path d="M18.2367 52.9647H16.0045V55.0252H18.2367V52.9647Z" fill="#3A3BC5"/>
<path d="M15.7124 36.5979H15.3252C14.6308 36.5979 13.9383 36.6755 13.267 36.8288L13.7256 38.8376C14.2467 38.7186 14.785 38.6583 15.3252 38.6583H15.7124V36.5979Z" fill="#3A3BC5"/>
<path d="M11.2145 54.0598C11.9657 54.4348 12.7646 54.7048 13.589 54.862L13.9751 52.8382C13.3362 52.7164 12.7171 52.5071 12.1348 52.2164L11.2145 54.0598Z" fill="#3A3BC5"/>
<path d="M36.094 52.9647H33.8618V55.0252H36.094V52.9647Z" fill="#3A3BC5"/>
<path d="M22.7013 52.9647H20.4691V55.0252H22.7013V52.9647Z" fill="#3A3BC5"/>
<path d="M27.1654 52.9647H24.9332V55.0252H27.1654V52.9647Z" fill="#3A3BC5"/>
<path d="M9.14223 42.2119L7.36286 41.1731C6.93926 41.8989 6.61766 42.6783 6.40698 43.4899L8.40115 44.0079C8.56444 43.3788 8.81376 42.7744 9.14223 42.2119Z" fill="#3A3BC5"/>
<path d="M11.9079 39.5257L10.9221 37.7164C10.1869 38.117 9.50864 38.6167 8.90613 39.2017L10.3414 40.6799C10.8098 40.2254 11.3368 39.8368 11.9079 39.5257Z" fill="#3A3BC5"/>
<path d="M9.27514 49.6305L7.53406 50.7323C7.98186 51.4399 8.52462 52.0845 9.14687 52.6472L10.5291 51.1192C10.0451 50.6815 9.62335 50.1806 9.27514 49.6305Z" fill="#3A3BC5"/>
<path d="M8.1729 45.9399L6.11279 45.9762C6.12773 46.8182 6.25634 47.651 6.49552 48.4513L8.46977 47.8615C8.28416 47.2408 8.1844 46.5943 8.1729 45.9399Z" fill="#3A3BC5"/>
<path d="M55.7661 55.6972C56.392 55.9419 56.9948 56.2525 57.5585 56.6205L58.6851 54.8954C58.0032 54.45 57.2735 54.0741 56.5163 53.7781L55.7661 55.6972Z" fill="#3A3BC5"/>
<path d="M60.5799 56.4291L59.1271 57.8901C59.6044 58.3649 60.0345 58.8899 60.4052 59.4512L62.1243 58.3151C61.6764 57.637 61.1568 57.0022 60.5799 56.4291Z" fill="#3A3BC5"/>
<path d="M61.3386 61.2383C61.5866 61.8626 61.7708 62.5153 61.8857 63.1781L63.9159 62.8259C63.7765 62.0233 63.5539 61.2333 63.2536 60.4777L61.3386 61.2383Z" fill="#3A3BC5"/>
<path d="M76.464 16.9239L78.4024 17.6231C78.8498 16.382 79.0768 15.0785 79.0768 13.7488H77.0164C77.0164 14.8396 76.8306 15.9078 76.464 16.9239Z" fill="#3A3BC5"/>
<path d="M76.6219 11.0522L78.5951 10.4593C77.1574 5.67427 72.6605 2.3324 67.6598 2.3324V4.39285C71.7585 4.39285 75.4438 7.13118 76.6219 11.0522Z" fill="#3A3BC5"/>
</svg>

<svg width="81" height="80" fill="none" xmlns="http://www.w3.org/2000/svg"><path d="M67.043 18.46a4.456 4.456 0 004.451-4.452 4.456 4.456 0 00-4.45-4.45 4.455 4.455 0 00-4.45 4.45 4.455 4.455 0 004.45 4.451zm0-6.842a2.393 2.393 0 012.39 2.39 2.393 2.393 0 01-2.39 2.39 2.392 2.392 0 01-2.389-2.39 2.392 2.392 0 012.39-2.39z" fill="#3A3BC5"/><path d="M73.804 17.841c.676-1.357 1.13-2.668 1.13-3.746 0-4.35-3.54-7.889-7.891-7.889a7.84 7.84 0 00-3.724.937C56.603 2.468 48.73 0 40.5 0 29.816 0 19.771 4.16 12.216 11.716 4.66 19.271.5 29.316.5 40c0 10.684 4.16 20.729 11.716 28.284C19.77 75.839 29.816 80 40.5 80c10.684 0 20.729-4.16 28.284-11.716C76.34 60.729 80.5 50.684 80.5 40c0-7.938-2.315-15.588-6.696-22.159zm4.62 21.128h-3.588c.033-.18.052-.363.052-.546 0-3.503-5.881-5.737-8.956-5.737h-8.207l-6.63-13.673c3.16-.312 6.2-.784 9.073-1.404 1.833 3.813 5.558 8.087 6.104 8.704l.77.871.772-.871c.44-.496 2.935-3.359 4.85-6.444a37.695 37.695 0 015.76 19.1zm-20.61 2.25a1.326 1.326 0 00-1.202-.769H46.364c-.508 0-.977.296-1.194.754l-.427.896H28.791c-.906 0-1.86-.142-2.82-.415l2.539-2.912a1.43 1.43 0 00.218-1.53 1.344 1.344 0 00-1.23-.804h-7.344c-.363 0-.699.148-.947.397a6.445 6.445 0 01-.819-2.09h47.544c1.64 0 3.88.765 5.356 1.742h-4.714v2.06h6.244c-.095.71-.973 1.574-2.341 2.29-1.443.755-3.27 1.262-4.546 1.262h-8.04c.074-.29.052-.601-.078-.881zm-2.801 1.291L43.132 56.427h-2.928L46.83 42.51h8.183zm-35.007 2.884h-2.057l2.694-6.895h5.372l-6.01 6.895zm-.266-20.797h2.233l4.744 8.09H21.05l-1.31-8.09zm27.146 8.09l-2.794-16.849h3.174l8.169 16.848h-8.55zm20.157-24.42a5.835 5.835 0 015.83 5.828c0 2.45-3.695 7.391-5.831 9.953-2.52-3.012-5.827-7.716-5.827-9.953a5.835 5.835 0 015.828-5.828zm-25.266-5.82c1.028 1.529 3.052 4.724 5.118 9.026l1.858-.892a76.811 76.811 0 00-4.651-8.352 37.57 37.57 0 0117.454 6.206 7.864 7.864 0 00-2.402 5.66c0 .482.093 1.012.253 1.571a79.952 79.952 0 01-9.273 1.365l-1.216-2.507a1.33 1.33 0 00-1.19-.746H43.22a1.321 1.321 0 00-1.304 1.54l.346 2.086-.544.003c-2.547 0-5.057-.102-7.5-.296 2.731-7.082 6.002-12.35 7.558-14.664zm-2.221-.375c-1.784 2.746-4.887 8.005-7.464 14.844-6.832-.709-13.035-2.167-17.883-4.243 6.614-6.364 15.522-10.36 25.347-10.6zm-24.26 66.259c4.849-1.907 10.92-3.239 17.526-3.872 2.465 6.212 5.234 10.951 6.842 13.47-9.339-.203-17.856-3.798-24.369-9.598zm19.672-4.05a95.58 95.58 0 0113.614.004c-2.565 6.315-5.407 10.988-6.804 13.117-1.432-2.182-4.261-6.844-6.81-13.121zm9.019 13.497c1.597-2.518 4.313-7.2 6.74-13.313 5.792.557 11.149 1.653 15.68 3.224-5.988 5.607-13.79 9.299-22.42 10.089zm24.04-11.697c-4.735-1.75-10.396-2.978-16.538-3.61 1.35-3.681 2.555-7.808 3.347-12.242l-2.028-.362c-.807 4.516-2.054 8.704-3.443 12.41a97.114 97.114 0 00-15.18-.002c-1.691-4.518-3.17-9.75-3.9-15.421l-2.044.263c.724 5.621 2.162 10.822 3.822 15.35-6.987.715-13.384 2.198-18.415 4.31C7.026 60.137 2.843 51.062 2.575 41.03h3.183v-2.06H2.575c.255-9.528 4.042-18.189 10.093-24.724 5.02 2.27 11.523 3.875 18.704 4.664a68.539 68.539 0 00-2.685 10.201l2.028.365c.666-3.707 1.647-7.19 2.765-10.36a96.147 96.147 0 009.124.347l2.193 13.223H29.105l-5.558-9.478a1.364 1.364 0 00-1.173-.671h-3.458a1.357 1.357 0 00-1.342 1.577l1.39 8.572h-1.406c-.362 0-.712.15-.962.413-.247.26-.378.613-.36.965.082 1.73.766 3.426 1.988 4.962l-2.541 6.507a1.43 1.43 0 00.149 1.328c.254.372.67.594 1.112.594h3.391c.386 0 .755-.17 1.012-.464l3.15-3.615c1.444.514 2.908.784 4.293.784h14.972l-5.92 12.435c-.197.413-.169.89.075 1.276s.662.616 1.118.616h4.437c.387 0 .754-.169 1.006-.464l11.835-13.862h9.619c1.603 0 3.762-.588 5.5-1.497.939-.491 1.698-1.043 2.264-1.634h4.73c-.26 9.687-4.169 18.48-10.398 25.051zm-28.325-8.6z" fill="#3A3BC5"/><path d="M55.816 36.488h-2.06v2.06h2.06v-2.06zm-8.586 0h-2.06v2.06h2.06v-2.06zm-12.877 0h-2.06v2.06h2.06v-2.06zm25.755 0h-2.06v2.06h2.06v-2.06zm-21.463 0h-2.06v2.06h2.06v-2.06zm4.293 0h-2.06v2.06h2.06v-2.06zm8.585 0h-2.06v2.06h2.06v-2.06zM18.237 52.965h-2.232v2.06h2.232v-2.06zm-2.525-16.367h-.387c-.694 0-1.387.078-2.058.23l.459 2.01a7.196 7.196 0 011.6-.18h.386v-2.06zM11.214 54.06c.752.375 1.55.645 2.375.802l.386-2.024a7.094 7.094 0 01-1.84-.622l-.92 1.844zm24.88-1.095h-2.232v2.06h2.232v-2.06zm-13.393 0H20.47v2.06h2.232v-2.06zm4.464 0h-2.232v2.06h2.232v-2.06zM9.142 42.212l-1.78-1.039a9.164 9.164 0 00-.955 2.317l1.994.518c.163-.63.413-1.234.741-1.796zm2.766-2.686l-.986-1.81c-.735.401-1.413.9-2.016 1.486l1.435 1.478a7.189 7.189 0 011.567-1.154zM9.275 49.63l-1.74 1.102c.447.708.99 1.352 1.612 1.915l1.382-1.528a7.198 7.198 0 01-1.254-1.489zm-1.102-3.69l-2.06.036c.015.842.143 1.675.383 2.475l1.974-.59a7.145 7.145 0 01-.297-1.921zm47.593 9.757a9.838 9.838 0 011.793.923l1.126-1.725a11.89 11.89 0 00-2.169-1.117l-.75 1.92zm4.814.733l-1.453 1.46c.477.475.907 1 1.278 1.561l1.72-1.136a11.94 11.94 0 00-1.545-1.886zm.759 4.808c.248.625.432 1.277.547 1.94l2.03-.352a11.87 11.87 0 00-.662-2.348l-1.915.76zm15.125-44.314l1.938.7c.448-1.242.675-2.545.675-3.875h-2.06a9.32 9.32 0 01-.553 3.175zm.158-5.872l1.973-.593c-1.438-4.785-5.934-8.127-10.935-8.127v2.06c4.099 0 7.784 2.74 8.962 6.66z" fill="#3A3BC5"/></svg>
